X:1
T:Sonata in Bb
T:Sonata in Bb
T:K 570, Movement I
T:Wolfgang Amadeus Mozart (1756-1791) 
C:Wolfgang Amadeus Mozart (1756-1791)
%%score { 1 | ( 2 3 ) }
L:1/8
Q:1/4=144
M:3/4
K:Bb
V:1 treble nm="Grand Piano" snm="Pno."
V:2 bass 
V:3 bass 
V:1
!p!"^Allegro" (B4 F2) | (D4 F2) | (B4 d2) | f4 (bd) | (fedcBA) | (GF=EFGA) | .B{/c}(B/A/ B).c.d.e | %7
 (=efgfbd) | (f_edcBA) | (GF=EFGA) | B z B z d z | B2 z3/2!p! .B/ (c/B/A/B/) | %12
 g2 z3/2 .B/ (c/B/A/B/) | f2 z3/2 .B/ (c/B/A/B/) | (c2 f2 e2) | (^c2 d)z/.B/ (=c/B/A/B/) | %16
 g2 z3/2 .B/ (c/B/A/B/) | f2 z3/2 .B/ (c/B/A/B/) | (c2 e2 A2) | B2 z2 z2 |!f! .[Bdg]2 .G2 z2 | %21
 .[^FAd]2 .D2 z2 |!p! (E4 =F/E/D/E/) | (cB) B2 B2 | (Bed_dc_c) | B2 z2 z2 |!<(! (E4 F/E/D/E/) | %27
 (c=B) B2 B2 | (cgedc_B) | =A2 z2 z2 | (Bd'bagf) | =e2 z2 z2 | (faf=edc) | =B2 z2 z2!<)! | %34
 z/!f! c/=B/c/ d/c/B/c/ z/ c/=e/c/ | z/ c/f/c/ z/ c/b/c/ z/ c/a/c/ | %36
 g/=e/d/c/ =B/c/d/c/ z/ c/e/c/ | z/ c/f/c/ z/ c/b/c/ z/ c/a/c/ | g/c'/g/=e/ c/g/e/c/ G/c/G/=E/ | %39
 C2 [=EGc]2 z2 | z6 | z6 | z!p! c'c'c'c'c' | (d'c'bagf) | (Tf=e) e2 z2 | z6 | z bbbbb | (c'bagf=e | %48
 f2) z (agf | =e2) z (d'c'e | f2) z (agf | =e2) z (d'c'e |!<(! f2) z (c'ag | ^f2) z (_e'd'f) | %54
 (agc'=b_ba) | (g>a) f2 T=e3/2d/4e/4!<)! | f/!f!c/=B/c/ d/c/B/c/ _B/c/A/c/ | %57
 G/c/=B/c/ d/c/B/c/ _b/c/b/c/ | a/c/=B/c/ d/c/B/c/ _B/c/A/c/ | G/c/=B/c/ d/c/B/c/ _b/c/b/c/ | %60
 a/c/=B/c/ d/c/B/c/ _e/c/_B/c/ | A/d/^c/d/ =e/d/c/d/ =c'/d/c'/d/ | =b2 _b2 a2 | %63
 g/d'/b/g/ f/c'/a/f/ =e/b/g/e/ | f/a/c'/b/ a/g/f/=e/ d/c/B/A/ | G/B/d/c/ B/A/G/F/ =E/D/C/=B,/ | %66
 .C .c.f.a.c'.f' | !trill(!Tg6{fg} | f2 z2 z2 | (b2 c'2 d'2) | (c'3 d'/c'/ b/a/g/f/) | a3 b g2 | %72
!p!!<(! f2 z2 z2 | (Bbcc'dd') | c'd'/=e'/ f'/e'/d'/c'/ b/a/g/f/ | a3 b g2!<)! | %76
!f! f2 z/!f! c'/d'/c'/ b/a/b/g/ | f2 z/ c/d/c/ B/A/B/G/ | F2 [Acf]2 z2 ::!f! _G2 [_Ac_g]2 z2 | %80
!p! (_D4 E/D/C/D/) | (B_A) A2 A2 | (_A_dc_cB__B) | _A2 z4 |!<(! (_D4 E/D/C/D/) | (B=A) A2 A2 | %86
 (Bf_dcB_A) | =G2 z2 z2 | (_A_af_e=dc) | =B2 z4 | (ce'c'b_ag) | ^f2 z2 z2 | (gbg=f_ed) | %93
 ^c2 z2 z2!<)! | z/!f! d/^c/d/ =e/d/c/d/ z/ d/^f/d/ | z/ d/g/d/ z/ d/c'/d/ z/ d/b/d/ | %96
 a/^f/=e/d/ ^c/d/e/d/ z/ d/f/d/ | z/ d/g/d/ z/ d/c'/d/ z/ d/b/d/ | a/d'/a/^f/ d/a/f/d/ A/d/A/^F/ | %99
 D2 [^FAd]2 z2 | z6 | z6 | z!p! d'd'd'd'd' | (_e'd'c'=b_ag) |[K:Eb] (Tg=f) f2 z2 |[K:Bb] z6 | %106
 z fffff | (gfedc=B) | (c4 G2 | E4 G2 | c4 e2 | g2) z2 z2 | (=e4 c2 | G4 c2 | =e4 g2 | b2) z2 z2 | %116
 z _aaaaa | (b_agfed) | z ggggg | (_agfedc) | z fffff | (gfedc=B) | (fedc_BA) | (c'bagf=e) | %124
 f2 z2 ([A_e]2 | [B_d]2) z2 ([db]2 | [ca]2) z2 ([EA]2 | [_DB]2) z2 ([B,D]2 | [A,C]) FFFFF | %129
 (=EFGFBA | =dc_edgf) | (f3 =e _ec) |!p! (B4 F2) | (D4 F2) | (B4 d2) | f4 (bd) | (fedcBA) | %137
 (GF=EFGA) | .B{/c}(B/A/ B).c.d.e | (=efgfbd) | (f_edcBA) | (GF=EFGA) | B z B z d z | %143
 B2 z3/2!p! .B/ (c/B/A/B/) | g2 z3/2 .B/ (c/B/A/B/) | f2 z3/2 .B/ (c/B/A/B/) | (c2 f2 e2) | %147
 (^c2 d)z/.B/ (=c/B/A/B/) | g2 z3/2 .B/ (c/B/A/B/) | f2 z3/2 .B/ (c/B/A/B/) | (c2 e2 A2) | B2 z4 | %152
!f! .[Bdg]2 .G2 z2 | .[^FAd]2 .D2 z2 |!p! (E4 =F/E/D/E/) | (cB) B2 B2 | (Bed_dc_c) | B2 z2 z2 | %158
!<(! (E4 F/E/D/E/) | (c=B) B2 B2 | (cgedc_B) | =A2 z2 z2 | (Bd'bagf) | =e2 z2 z2!<)! | %164
 z/!f! f/=e/f/ g/f/e/f/ z/ f/a/f/ | z/ f/b/f/ z/ f/e'/f/ z/ f/d'/f/ | %166
 c'/a/g/f/ =e/f/g/f/ z/ f/a/f/ | z/ f/b/f/ z/ f/e'/f/ z/ f/d'/f/ | c'/f'/c'/a/ f/c'/a/f/ c/f/c/A/ | %169
 F2 [Acf]2 z2 | z6 | z6 | z!p! fffff | (gfedcB) | (TBA) A2 z2 | z6 | z eeeee | (fedcBA) | %178
 B2 z (dcB | A2) z (gfA | B2) z (dcB | A2) z (_gfA |!<(! B2) z (f_dc | =B2) z (_agB) | %184
 (=dcf=e_ed) | (c>d) B2 TA3/2G/4A/4!<)! | B/!f!F/=E/F/ G/F/E/F/ _E/F/D/F/ | %187
 C/F/=E/F/ G/F/E/F/ _e/F/e/F/ | d/f/=e/f/ g/f/e/f/ _e/f/d/f/ | c/f/=e/f/ g/f/e/f/ _e'/f/e'/f/ | %190
 d'/f/=e/f/ g/f/e/f/ _a/f/_e/f/ | d/g/^f/g/ =a/g/f/g/ =f'/g/f'/g/ | =e'2 _e'2 d'2 | %193
 (d'/c'/e'/c'/) (c'/b/d'/b/) (b/a/c'/a/) | b/d'/f'/e'/ d'/c'/b/a/ g/f/e/d/ | %195
 c/e/g/f/ e/d/c/B/ A/G/F/=E/ | .F.B .d.f.b.d' | !trill(!Tc6{Bc} | B2 z2 z2 | (e2 f2 g2) | %200
 (f3 g/f/ e/d/c/B/) | d3 e c2 |!p!!<(! B2 z2 z2 | (EeFfGg) | fg/a/ b/a/g/f/ e/d/c/B/ | %205
 d3 e c2!<)! |!f! B2 z/!f! f/g/f/ e/d/e/c/ | B2 z/ F/G/F/ E/D/E/C/ | B,2 [dfb]2 z2 :| %209
V:2
 (B,4 F,2) | (D,4 F,2) | (B,4 D2) | F4 z2 | [F,CE]6- | [F,CE]6 | [B,D]2 z2 z2 | z6 | [F,CE]6- | %9
 [F,CE]6 | [B,D] z [B,D] z [B,F] z | [B,D]2 z2 z2 | z2!p! [E,G,B,]2 z2 | z2 [D,F,B,]2 z2 | %14
 ([A,F-]6 | [B,F]2) z2 z2 | z2 [E,G,B,]2 z2 | z2 [D,F,B,]2 z2 | (A,2 C2 E2) | D2 z2 z2 | %20
 .G,2 .G,,2 z2 | .D,2 .D,,2 z2 | G,B,G,B,G,B, | _A,B,A,B,A,B, | G,B,G,B,G,B, | _A,B,A,B,A,B, | %26
 G,B,G,B,G,B, | F,_A,F,A,F,A, | G,CG,CG,C | F,CF,CF,C | F,B,F,B,F,B, | G,B,G,B,G,B, | %32
 F,A,F,A,F,A, | DFDFDF | [C=E]2 z2[K:treble]!f! _B2 | A2 =E2 F2 | C2 z2 =B2 | A2 =E2 F2 | %38
 C2 z2 z/[K:bass] C/G,/=E,/ | C,2 C,,2 z2 |!p! (F,4 C,2) | (A,,4 C,2) | (F,4 A,2) | C2 z2 z2 | %44
 (B,4 G,2) | (=E,4 G,2) | (B,4 =E2) | G2 z2 z2 |[K:treble] (AcAcAc) | (BcBcBc) | (AcAcAc) | %51
 (BcBcBc) | (AcAcAc) | (AcAcAc) | B2 c4 | B2 (A2 G2) | F2[K:bass] z!f! (A,G,F, | =E,2) z (DCE, | %58
 F,2) z (A,G,F, | =E,2) z (DCE, | F,2) z (CA,G, | ^F,2) z (_EDF,) | %62
 G,/D/=B,/D/ =E,/_D/G,/D/ F,/C/A,/C/ | [B,,B,]2 [C,A,]2 [B,,G,]2 | [A,,F,]2 z2 [A,C]2 | %65
 [B,D]2 z2 [D,F,G,]2 | C,/A,/F,/A,/ C,/A,/F,/A,/ C,/A,/F,/A,/ | %67
 C,/B,/=E,/B,/ C,/B,/E,/B,/ C,/B,/E,/B,/ | (F,!p!A,CF=E_E | DFCFB,F) |[K:treble] (A,F=EFB,G) | %71
 (CAFACB) | (AF=E_ED^C) | (DF=C=E=B,_A) | (C=AFACA) | (CcAcCB) | %76
[K:bass] z/!f! F,/A,/C/ F z [C=E] z | z/ F,,/A,,/C,/ F, z [C,=E,] z | F,2 F,,2 z2 :: %79
 _E,2 _E,,2 z2 | F,_A,F,A,F,A, | _G,_A,G,A,G,A, | F,_A,F,A,F,A, | _G,_A,G,A,G,A, | F,_A,F,A,F,A, | %85
 E,_G,E,G,E,G, | F,B,F,B,F,B, | B,_DB,DB,D | _A,CA,CA,C |[K:treble] =DFDFDF | CECECE | CDCDCD | %92
 DGDGDG | G=AGAGA | [D^F]2 z2!f! =c2 | B2 ^F2 G2 | D2 z2 =c2 | B2 ^F2 G2 | %98
 D2 z2 z/[K:bass] D/A,/^F,/ | D,2 D,,2 z2 |!p! (G,4 D,2 | =B,,4 D,2 | G,4 =B,2 | D2) z2 z2 | %104
[K:Eb] (G,4 D,2 |[K:Bb] =B,,4 D,2 | G,4 =B,2 | D2) z2 z2 | z6 | z6 | z G,G,G,G,G, | %111
 (_A,G,F,E,D,C,) | (C,_B,,) B,,2 z2 | z6 | z B,B,B,B,B, | (CB,_A,G,F,=E,) | F,2 z2 z2 | %117
[K:treble] ([DF]2 [EG]2 [F_A]2) | [EG]2 z2 z2 | ([CE]2 [DF]2 [EG]2) | [DF]2 z2 z2 | %121
 ([=B,D]2 [CE]2 [DF]2) | [CE]2 z2[K:bass] [F,E]2 | [G,D]2 z2[K:treble] [GB]2 | z FFFFF | %125
 (_GFE_DCB,) |[K:bass] z F,F,F,F,F, | (_G,F,E,_D,C,B,,) | F,,2 z4 | [F,A,E]6- | [F,A,E]6- | %131
 [F,A,E]2 z2 z2 | B,4 F,2 | (D,4 F,2) | (B,4 D2) | F4 z2 | [F,CE]6- | [F,CE]6 | [B,D]2 z2 z2 | z6 | %140
 [F,CE]6- | [F,CE]6 | [B,D] z [B,D] z [B,F] z | [B,D]2 z2 z2 | z2!p! [E,G,B,]2 z2 | %145
 z2 [D,F,B,]2 z2 | ([A,F-]6 | [B,F]2) z2 z2 | z2 [E,G,B,]2 z2 | z2 [D,F,B,]2 z2 | (A,2 C2 E2) | %151
 D2 z2 z2 | .G,2 .G,,2 z2 | .D,2 .D,,2 z2 | G,B,G,B,G,B, | _A,B,A,B,A,B, | G,B,G,B,G,B, | %157
 _A,B,A,B,A,B, | G,B,G,B,G,B, | F,_A,F,A,F,A, | G,CG,CG,C | CECECE | B,DB,DB,D |[K:treble] GBGBGB | %164
[K:treble] [FA]2 z2!f! _e2 | d2 A2 B2 | F2 z2 _e2 | d2 A2 B2 | F2 z2 z/[K:bass] F/C/A,/ | %169
 F,2 F,,2 z2 |!p! (B,4 F,2) | (D,4 F,2) | (B,4 D2) | F2 z2 z2 | (E,4 C,2) | (A,,4 C,2) | %176
 (E,4 A,2) | C2 z2 z2 |[K:treble] (DFDFDF) | (EFEFEF) | (DFDFDF) | (EFEFEF) | (_DFDFDF) | =DFDFDF | %184
 E2 F4 |[K:bass] E2 (D2 C2) | B,2 z!f! (D,C,B,, | A,,2) z (G,F,A,, | B,,2) z (DCB, | %189
 A,2) z[K:treble] (GFA, | B,2) z (FDC | =B,2) z (_AG=B,) | C/G/=E/G/ A,/_G/C/G/ _B,/F/D/F/ | %193
[K:bass] [E,E]2 [F,D]2 [E,C]2 | [D,B,]2 z2[K:treble] [DF]2 | [EG]2 z2[K:bass] [G,B,C]2 | %196
 F,/D/B,/D/ F,/D/B,/D/ F,/D/B,/D/ | F,/E/A,/E/ F,/E/A,/E/ F,/E/A,/E/ |[K:treble] (B,!p!DFBA_A | %199
 GBFBEB) | (DBAB[K:bass] G,E) | (F,DB,DF,E) | (DB,A,_A,G,^F,) | (G,B,=F,=A,=E,_D) | (F,=DB,DF,D) | %205
 (F,FDFF,E) |[K:treble] z/!f! B,/D/F/ B z[K:bass] [F,A,] z | z/ B,,/D,/F,/ B, z [F,,A,,] z | %208
 B,,2 B,,,2 z2 :| %209
V:3
 x6 | x6 | x6 | x6 | x6 | x6 | x6 | x6 | x6 | x6 | x6 | x6 | x6 | x6 | x6 | x6 | x6 | x6 | F,6 | %19
 B,2 x4 | x6 | x6 | E,6 | D,6 | E,6 | D,6 | E,6 | D,6 | E,6 | E,6 | D,6 | C,6 | D,6 | G,6 | %34
 x4[K:treble] x2 | x6 | x6 | x6 | x9/2[K:bass] x3/2 | x6 | x6 | x6 | x6 | x6 | x6 | x6 | x6 | x6 | %48
[K:treble] x6 | x6 | x6 | x6 | x6 | D6 | G2 (=E2 F2) | B,2 C4 | F2[K:bass] x4 | x6 | x6 | x6 | x6 | %61
 x6 | x6 | x6 | x6 | x6 | x6 | x6 | x6 | x6 |[K:treble] x6 | x6 | x6 | x6 | x6 | x6 |[K:bass] x6 | %77
 x6 | x6 :: x6 | _D,6 | C,6 | _D,6 | C,6 | _D,6 | C,6 | _D,6 | =E,6 | F,6 |[K:treble] G,6 | _A,6 | %91
 =A,6 | _B,6 | _E6 | x6 | x6 | x6 | x6 | x9/2[K:bass] x3/2 | x6 | x6 | x6 | x6 | x6 |[K:Eb] x6 | %105
[K:Bb] x6 | x6 | x6 | x6 | x6 | x6 | x6 | x6 | x6 | x6 | x6 | x6 |[K:treble] B,6 | x6 | _A,6 | x6 | %121
 G,6 | x4[K:bass] x2 | x4[K:treble] x2 | x6 | x6 |[K:bass] x6 | x6 | x6 | x6 | x6 | x6 | x6 | x6 | %134
 x6 | x6 | x6 | x6 | x6 | x6 | x6 | x6 | x6 | x6 | x6 | x6 | x6 | x6 | x6 | x6 | F,6 | B,2 x4 | %152
 x6 | x6 | E,6 | D,6 | E,6 | D,6 | E,6 | D,6 | E,6 | ^F,6 | G,6 |[K:treble] C6 |[K:treble] x6 | %165
 x6 | x6 | x6 | x9/2[K:bass] x3/2 | x6 | x6 | x6 | x6 | x6 | x6 | x6 | x6 | x6 |[K:treble] x6 | %179
 x6 | x6 | x6 | x6 | G,6 | C2 (A,2 B,2) |[K:bass] E,2 F,4 | x6 | x6 | x6 | x3[K:treble] x3 | x6 | %191
 x6 | x6 |[K:bass] x6 | x4[K:treble] x2 | x4[K:bass] x2 | x6 | x6 |[K:treble] x6 | x6 | %200
 x4[K:bass] x2 | x6 | x6 | x6 | x6 | x6 |[K:treble] x4[K:bass] x2 | x6 | x6 :| %209

